X: 13831
T: Four Seasons, The
R: jig
M: 6/8
K: Dmajor
|:ABA FDF|AGF E2A,|D2A, E2A,|AGF E3|
ABA FDF|AGF E2A,|D2A, E2A,|FGE D3:|
|:ABA d2d|ABA F3|ABA GAG|EFG F2D|
ABA d2d|ABA F3|ABA GEF|GFE D3:|
|:F2F EFG|GFE F2D|F2F EFG|GFE D3|
FGF EFG|GFE F2D|F2F EFG|GFE D3:|

